src/icons/io.github.kolunmi.Bazaar.github.svg

<svg width="128" height="128" viewBox="0 0 128 128" fill="none" xmlns="http://www.w3.org/2000/svg">
<path d="M100 11.9999H28C19.1634 11.9999 12 19.1633 12 27.9999V100C12 108.837 19.1634 116 28 116H100C108.837 116 116 108.837 116 100V27.9999C116 19.1633 108.837 11.9999 100 11.9999Z" fill="#F6F5F4"/>
<path fill-rule="evenodd" clip-rule="evenodd" d="M64.0339 23C41.3432 23 23 41.5624 23 64.5267C23 82.8832 34.7531 98.4217 51.0578 103.921C53.0964 104.335 53.8431 103.028 53.8431 101.928C53.8431 100.966 53.7759 97.6657 53.7759 94.2274C42.3612 96.7029 39.9842 89.2771 39.9842 89.2771C38.1498 84.4644 35.4318 83.2275 35.4318 83.2275C31.6958 80.6836 35.7039 80.6836 35.7039 80.6836C39.8482 80.9586 42.0227 84.9462 42.0227 84.9462C45.6907 91.2709 51.6013 89.4838 53.9791 88.3836C54.3185 85.7022 55.4062 83.8459 56.5611 82.8149C47.4571 81.8522 37.8785 78.2772 37.8785 62.3262C37.8785 57.7885 39.508 54.076 42.0899 51.1887C41.6826 50.1577 40.2555 45.8942 42.4981 40.188C42.4981 40.188 45.9628 39.0877 53.775 44.4506C57.1197 43.5416 60.569 43.0792 64.0339 43.0753C67.4986 43.0753 71.0305 43.557 74.292 44.4506C82.105 39.0877 85.5697 40.188 85.5697 40.188C87.8123 45.8942 86.3845 50.1577 85.9771 51.1887C88.6271 54.076 90.1893 57.7885 90.1893 62.3262C90.1893 78.2772 80.6108 81.783 71.4387 82.8149C72.9338 84.121 74.224 86.5957 74.224 90.5149C74.224 96.0836 74.1568 100.553 74.1568 101.927C74.1568 103.028 74.9043 104.335 76.942 103.922C93.2467 98.4208 105 82.8832 105 64.5267C105.067 41.5624 86.6566 23 64.0339 23Z" fill="#24292F"/>
</svg>

<svg xmlns="http://www.w3.org/2000/svg" width="128" height="128" fill="none" viewBox="0 0 128 128"><path fill="#f6f5f4" d="M100 12H28c-8.837 0-16 7.163-16 16v72c0 8.837 7.163 16 16 16h72c8.837 0 16-7.163 16-16V28c0-8.837-7.163-16-16-16"/><path fill="#24292f" fill-rule="evenodd" d="M64.034 23C41.344 23 23 41.562 23 64.527c0 18.356 11.753 33.895 28.058 39.394 2.038.414 2.785-.893 2.785-1.993 0-.962-.067-4.262-.067-7.7-11.415 2.475-13.792-4.95-13.792-4.95-1.834-4.814-4.552-6.05-4.552-6.05-3.736-2.544.272-2.544.272-2.544 4.144.275 6.319 4.262 6.319 4.262 3.668 6.325 9.578 4.538 11.956 3.438.34-2.682 1.427-4.538 2.582-5.57-9.104-.962-18.682-4.537-18.682-20.488 0-4.538 1.629-8.25 4.21-11.137-.406-1.031-1.834-5.295.41-11.001 0 0 3.464-1.1 11.276 4.263a39.3 39.3 0 0 1 10.259-1.376c3.465 0 6.996.482 10.258 1.376 7.813-5.363 11.278-4.263 11.278-4.263 2.242 5.706.815 9.97.407 11 2.65 2.888 4.212 6.6 4.212 11.138 0 15.951-9.578 19.457-18.75 20.489 1.495 1.306 2.785 3.78 2.785 7.7 0 5.569-.067 10.038-.067 11.412 0 1.101.747 2.408 2.785 1.995C93.247 98.421 105 82.883 105 64.527 105.067 41.562 86.657 23 64.034 23" clip-rule="evenodd"/></svg>
